src/assets/metronic/worbby/global/img/social-gplus.svg

<?xml version="1.0" encoding="UTF-8"?>
<svg width="40px" height="40px" viewBox="0 0 40 40" version="1.1" xmlns="http://www.w3.org/2000/svg" xmlns:xlink="http://www.w3.org/1999/xlink">
    <!-- Generator: Sketch 41.2 (35397) - http://www.bohemiancoding.com/sketch -->
    <title>social-gplus</title>
    <desc>Created with Sketch.</desc>
    <defs>
        <path d="M0,20 C0,8.954305 8.95187636,0 20,0 L20,0 C31.045695,0 40,8.95187636 40,20 L40,20 C40,31.045695 31.0481236,40 20,40 L20,40 C8.954305,40 0,31.0481236 0,20 L0,20 Z" id="path-1"></path>
        <mask id="mask-2" maskContentUnits="userSpaceOnUse" maskUnits="objectBoundingBox" x="0" y="0" width="40" height="40" fill="white">
            <use xlink:href="#path-1"></use>
        </mask>
    </defs>
    <g id="Desktop" stroke="none" stroke-width="1" fill="none" fill-rule="evenodd">
        <g id="Desktop-Needor-Worbbior-Profile" transform="translate(-1023.000000, -1013.000000)">
            <g id="social-gplus" transform="translate(1023.000000, 1013.000000)">
                <use id="Rectangle-4-Copy-2" stroke="#1E2225" mask="url(#mask-2)" stroke-width="2" xlink:href="#path-1"></use>
                <path d="M16.3636364,18.4285714 L16.3636364,20.6 L19.9727273,20.6 C19.8272727,21.5319048 18.8818182,23.332381 16.3636364,23.332381 C14.1909091,23.332381 12.4181818,21.5409524 12.4181818,19.3333333 C12.4181818,17.1257143 14.1909091,15.3342857 16.3636364,15.3342857 C17.6,15.3342857 18.4272727,15.8590476 18.9,16.3114286 L20.6272727,14.6557143 C19.5181818,13.6242857 18.0818182,13 16.3636364,13 C12.8454545,13 10,15.8319048 10,19.3333333 C10,22.8347619 12.8454545,25.6666667 16.3636364,25.6666667 C20.0363636,25.6666667 22.4727273,23.0971429 22.4727273,19.4780952 C22.4727273,19.0619048 22.4272727,18.7452381 22.3727273,18.4285714 L16.3636364,18.4285714 Z M30,18.4285714 L28.1818182,18.4285714 L28.1818182,16.6190476 L26.3636364,16.6190476 L26.3636364,18.4285714 L24.5454545,18.4285714 L24.5454545,20.2380952 L26.3636364,20.2380952 L26.3636364,22.047619 L28.1818182,22.047619 L28.1818182,20.2380952 L30,20.2380952 L30,18.4285714 Z" id="Combined-Shape" fill="#DC4E41"></path>
            </g>
        </g>
    </g>
</svg>

<svg xmlns="http://www.w3.org/2000/svg" width="40" height="40" xmlns:xlink="http://www.w3.org/1999/xlink"><defs><path id="a" d="M0 20C0 8.9543 8.952 0 20 0c11.0457 0 20 8.952 20 20 0 11.0457-8.952 20-20 20C8.9543 40 0 31.048 0 20z"/><mask id="b" width="40" height="40" x="0" y="0" fill="#fff"><use xlink:href="#a"/></mask></defs><g fill="none" fill-rule="evenodd"><use stroke="#1E2225" stroke-width="2" mask="url(#b)" xlink:href="#a"/><path fill="#DC4E41" d="M16.3636 18.4286V20.6h3.609c-.1453.932-1.0908 2.7324-3.609 2.7324-2.1727 0-3.9454-1.7914-3.9454-3.999 0-2.2077 1.7727-3.999 3.9454-3.999 1.2364 0 2.0637.5246 2.5364.977l1.7273-1.6557C19.5183 13.6243 18.0818 13 16.3636 13 12.8456 13 10 15.832 10 19.3333c0 3.5015 2.8455 6.3334 6.3636 6.3334 3.6728 0 6.109-2.5696 6.109-6.1886 0-.416-.0453-.7328-.1-1.0494h-6.009zm13.6364 0h-1.8182V16.619h-1.8182v1.8096h-1.818v1.8095h1.818v1.8096h1.8182V20.238H30v-1.8094z"/></g></svg>
